**kern
*I"钢琴, MIDI
*clefG2
*k[]
*M4/4
*MM135
=1
1r
=2
*k[f#c#g#d#]
2r
8r
8EL
8A
8BJ
=3
4.c#
8c#
4c#
8BL
8AJ
=4
8B
4G#
8E
8r
8EL
8A
8BJ
=5
4.c#
8c#
8c#L
8d#
8e
[8c#J
=6
8c#L]
8c#J
4B
8r
8BL
8c#
8d#J
=7
4.e
8e
8d#L
8e
8f#
[8g#J
=8
4g#]
8r
8B
8aL
8g#
8f#
[8eJ
=9
4e]
8r
8g#
8aL
8g#
8f#
[8eJ
=10
2e]
8r
8eL
8e
8f#J
=11
4g#
8r
8g#
8.f#L
16f#Jk
8r
8f#
=12
4e
4r
8r
8eL
8f#
8g#J
=13
4a
8r
8a
4g#
8eL
[8eJ
=14
8eL]
8eJ
4f#'
4g#
4a
=15
4b
8r
8b
4.b
8g#
=16
8.f#L
16f#Jk
8g#L
8eJ
4r
8c#L
8eJ
=17
8aL
8a
8b
8f#J
8f#L
8e
8d#
[8eJ
=18
8e]
8r
4r
8r
8eL
8e
8f#J
=19
8.g#L
16g#Jk
8r
8g#
4.f#
8f#
=20
8f#
4.e'
8r
8eL
8f#
8g#J
=21
4a
8r
8a
8g#L
8e
8e
[8eJ
=22
8eL]
8eJ
4f#'
4g#
4a
=23
4b
8r
8b
8.bL
16bJk
8g#L
[8f#J
=24
8f#L]
8f#
8g#
8eJ
4r
16c#LL
16c#J
8eJ
=25
8aL
8a
8b
8f#J
8f#L
8e
8d#
[8eJ
=26
4e]
4r
8eL
8e
8d#
8c#J
=27
8BL
8A
8A
8d#J
4.e
8A
=28
8G#L
8F#J
4F#
8r
8F#L
8F#
8F#J
=29
4E
8EL
[8F#J
8F#]
4G#
[8e
=30
2e]
8r
8c#L
8d#
[8eJ
=31
8eL]
8eJ
4r
8r
8B
8f#L
16eL
16f#JJ
=32
4e
4r
8r
8BL
8A
8G#J
=33
8AL
8G#
8A
[8BJ
8BL]
8A
8B
[8c#J
=34
8c#L]
8B
8c#
[8d#J
4.d#]
8r
=35
2r
8r
8EL
8A
8BJ
=36
4.c#
8c#
4c#
8BL
8AJ
=37
8B
4G#
8E
8r
8EL
8A
8BJ
=38
4.c#
8c#
8c#L
8d#
8e
[8c#J
=39
8c#L]
8c#J
4B
8r
8BL
8c#
8d#J
=40
4.e
8e
8d#L
8e
8f#
[8g#J
=41
4g#]
8r
8B
8aL
8g#
8f#
[8eJ
=42
4e]
8r
8g#
8aL
8g#
8f#
[8eJ
=43
2e]
8r
8EL
8A
8BJ
=44
4.c#
8c#
4c#
8BL
8AJ
=45
8B
4G#
8E
8r
8EL
8A
8BJ
=46
4.c#
8c#
8c#L
8d#
8e
[8c#J
=47
8c#L]
8c#J
4B
8r
8BL
8c#
8d#J
=48
4e
8eL
8eJ
8d#L
8e
8f#
[8g#J
=49
4g#]
8r
8B
8aL
8g#
8f#
[8eJ
=50
8eL]
16d#L
16eJJ
8r
8g#
8aL
8g#
8f#
[8eJ
=51
4e]
8r
8B
8aL
8g#
8f#
[8eJ
=52
4e]
8r
8g#
8aL
8g#
8f#
[8eJ
=53
2e]
2r
==
*-
